assets/dude/Design–Patsy.svg

<svg width="498" height="108" viewBox="0 0 498 108" fill="none" xmlns="http://www.w3.org/2000/svg">
<path d="M44.6029 1.63994C26.4029 1.63994 0.50293 4.15994 0.50293 16.6199C0.50293 26.4199 2.60293 26.2799 2.60293 38.7399C2.60293 39.4399 3.16293 39.9999 3.86293 39.9999H17.7229C18.4229 39.9999 18.9829 40.5599 18.9829 41.2599V66.4599C18.9829 67.1599 18.4229 67.7199 17.7229 67.7199H3.86293C3.16293 67.7199 2.60293 68.2799 2.60293 68.9799C2.60293 81.4399 0.50293 81.4399 0.50293 91.2399C0.50293 103.7 26.4029 105.94 44.6029 105.94C86.0429 105.94 86.4629 80.0399 86.4629 67.5799V40.2799C86.4629 27.8199 86.8829 1.63994 44.6029 1.63994ZM29.0629 66.4599V41.2599C29.0629 40.5599 29.6229 39.9999 30.3229 39.9999H67.5629C72.4629 39.9999 76.3829 43.9199 76.3829 48.8199V58.8999C76.3829 63.7999 72.4629 67.7199 67.5629 67.7199H30.3229C29.6229 67.7199 29.0629 67.1599 29.0629 66.4599Z" fill="#FF1C31"/>
<path d="M178.185 61.8399C178.185 61.1399 177.625 60.5799 176.925 60.5799H169.645C168.945 60.5799 168.385 61.1399 168.385 61.8399C168.385 65.3399 165.585 67.7199 162.085 67.7199H122.745C122.045 67.7199 121.485 67.1599 121.485 66.4599V58.8999C121.485 58.1999 122.045 57.6399 122.745 57.6399H134.505C135.205 57.6399 135.765 58.1999 135.765 58.8999V60.1599C135.765 60.8599 136.325 61.4199 137.025 61.4199H155.925C156.625 61.4199 157.185 60.8599 157.185 60.1599V47.5599C157.185 46.8599 156.625 46.2999 155.925 46.2999H137.025C136.325 46.2999 135.765 46.8599 135.765 47.5599V48.8199C135.765 49.5199 135.205 50.0799 134.505 50.0799H122.745C122.045 50.0799 121.485 49.5199 121.485 48.8199V41.2599C121.485 40.5599 122.045 39.9999 122.745 39.9999H162.085C165.585 39.9999 168.385 42.3799 168.385 45.8799C168.385 46.5799 168.945 47.1399 169.645 47.1399H176.925C177.625 47.1399 178.185 46.5799 178.185 45.8799V38.7399C178.185 26.2799 180.285 26.4199 180.285 16.6199C180.285 4.15994 154.805 1.63994 136.605 1.63994C118.405 1.63994 92.9248 4.15994 92.9248 16.6199C92.9248 26.4199 95.0248 26.2799 95.0248 38.7399C95.0248 39.4399 95.5848 39.9999 96.2848 39.9999H110.145C110.845 39.9999 111.405 40.5599 111.405 41.2599V66.4599C111.405 67.1599 110.845 67.7199 110.145 67.7199H96.2848C95.5848 67.7199 95.0248 68.2799 95.0248 68.9799C95.0248 81.4399 92.9248 81.4399 92.9248 91.2399C92.9248 103.7 118.405 105.94 136.605 105.94C154.805 105.94 180.285 103.7 180.285 91.2399C180.285 81.4399 178.185 81.4399 178.185 68.9799V61.8399Z" fill="#FF1C31"/>
<path d="M189.501 68.9799C189.501 81.4399 187.261 81.2999 187.261 91.0999C187.261 103.56 205.181 106.64 222.541 106.64C250.541 106.64 259.781 94.8799 259.781 77.2399V69.9599C259.781 35.9399 208.821 58.8999 208.821 43.7799C208.821 41.6799 210.501 39.9999 212.601 39.9999H237.661C241.161 39.9999 243.961 42.3799 243.961 45.8799C243.961 46.5799 244.521 47.1399 245.221 47.1399H252.501C253.201 47.1399 253.761 46.5799 253.761 45.8799V39.0199C253.761 26.5599 256.001 26.6999 256.001 16.8999C256.001 4.43994 240.461 1.35995 223.101 1.35995C199.721 1.35995 189.921 12.6999 189.921 30.1999V36.2199C189.921 70.2399 240.881 48.8199 240.881 63.9399C240.881 66.0399 239.201 67.7199 237.101 67.7199H205.601C202.101 67.7199 199.301 65.3399 199.301 61.8399C199.301 61.1399 198.741 60.5799 198.041 60.5799H190.761C190.061 60.5799 189.501 61.1399 189.501 61.8399V68.9799Z" fill="#FF1C31"/>
<path d="M309.417 67.7199H295.557C294.857 67.7199 294.297 67.1599 294.297 66.4599V41.2599C294.297 40.5599 294.857 39.9999 295.557 39.9999H309.417C310.117 39.9999 310.677 39.4399 310.677 38.7399C310.677 26.2799 312.777 26.5599 312.777 16.7599C312.777 6.95994 297.797 3.73994 289.257 3.73994C280.717 3.73994 265.737 6.95994 265.737 16.7599C265.737 26.5599 267.837 26.2799 267.837 38.7399C267.837 39.4399 268.397 39.9999 269.097 39.9999H282.957C283.657 39.9999 284.217 40.5599 284.217 41.2599V66.4599C284.217 67.1599 283.657 67.7199 282.957 67.7199H269.097C268.397 67.7199 267.837 68.2799 267.837 68.9799C267.837 81.4399 265.737 81.1599 265.737 90.9599C265.737 100.76 280.717 103.98 289.257 103.98C297.797 103.98 312.777 100.76 312.777 90.9599C312.777 81.1599 310.677 81.4399 310.677 68.9799C310.677 68.2799 310.117 67.7199 309.417 67.7199Z" fill="#FF1C31"/>
<path d="M388.358 52.3199C388.358 51.6199 387.798 51.0599 387.098 51.0599H363.158C362.458 51.0599 361.898 51.6199 361.898 52.3199V57.3599C361.898 58.0599 362.458 58.6199 363.158 58.6199H377.018C377.718 58.6199 378.278 59.1799 378.278 59.8799V62.1199C378.278 65.6199 375.478 67.9999 371.978 67.9999H339.498C333.338 67.9999 328.298 62.9599 328.298 56.7999V50.9199C328.298 44.7599 333.338 39.7199 339.498 39.7199H372.258C375.758 39.7199 378.558 42.0999 378.558 45.5999C378.558 46.2999 379.118 46.8599 379.818 46.8599H387.098C387.798 46.8599 388.358 46.2999 388.358 45.5999V39.9999C388.358 27.5399 390.458 28.0999 390.458 18.2999C390.458 5.83994 367.778 0.939941 354.338 0.939941C340.898 0.939941 319.058 4.85994 319.058 34.6799V69.3999C319.058 104.68 341.318 107.06 354.758 107.06C368.198 107.06 390.458 103.56 390.458 91.0999C390.458 81.2999 388.358 81.8599 388.358 69.3999V52.3199Z" fill="#FF1C31"/>
<path d="M473.564 3.73994C465.024 3.73994 450.044 6.95994 450.044 16.7599C450.044 26.5599 452.144 26.2799 452.144 38.7399C452.144 39.4399 452.704 39.9999 453.404 39.9999H467.264C467.964 39.9999 468.524 40.5599 468.524 41.2599V66.4599C468.524 67.1599 467.964 67.7199 467.264 67.7199H459.424C458.304 67.7199 457.744 67.1599 457.744 67.1599L439.824 41.9599C439.824 41.9599 439.264 41.1199 439.264 40.5599C439.264 40.2799 439.404 39.9999 440.104 39.9999H440.804C441.504 39.9999 442.064 39.4399 442.064 38.7399C442.064 26.2799 444.164 26.5599 444.164 16.7599C444.164 6.95994 429.184 3.73994 420.644 3.73994C412.104 3.73994 397.124 6.95994 397.124 16.7599C397.124 26.5599 399.224 26.2799 399.224 38.7399C399.224 39.4399 399.784 39.9999 400.484 39.9999H414.344C415.044 39.9999 415.604 40.5599 415.604 41.2599V66.4599C415.604 67.1599 415.044 67.7199 414.344 67.7199H400.484C399.784 67.7199 399.224 68.2799 399.224 68.9799C399.224 81.4399 397.124 81.1599 397.124 90.9599C397.124 100.76 412.104 103.98 420.644 103.98C429.184 103.98 444.164 100.76 444.164 90.9599C444.164 81.1599 442.064 81.4399 442.064 68.9799C442.064 68.2799 441.504 67.7199 440.804 67.7199H426.944C426.244 67.7199 425.684 67.1599 425.684 66.4599V42.0999C425.684 41.5399 425.964 41.2599 426.244 41.2599C426.944 41.2599 427.644 42.3799 427.644 42.3799L469.504 100.9C470.344 102.16 471.884 103 473.564 103C476.364 103 478.604 100.76 478.604 97.9599V41.2599C478.604 40.5599 479.164 39.9999 479.864 39.9999H493.724C494.424 39.9999 494.984 39.4399 494.984 38.7399C494.984 26.2799 497.084 26.5599 497.084 16.7599C497.084 6.95994 482.104 3.73994 473.564 3.73994Z" fill="#FF1C31"/>
</svg>

<svg xmlns="http://www.w3.org/2000/svg" fill="none" viewBox="0 0 498 108"><path fill="#FF1C31" d="M44.603 1.64c-18.2 0-44.1 2.52-44.1 14.98 0 9.8 2.1 9.66 2.1 22.12 0 .7.56 1.26 1.26 1.26h13.86c.7 0 1.26.56 1.26 1.26v25.2c0 .7-.56 1.26-1.26 1.26H3.863c-.7 0-1.26.56-1.26 1.26 0 12.46-2.1 12.46-2.1 22.26 0 12.46 25.9 14.7 44.1 14.7 41.44 0 41.86-25.9 41.86-38.36v-27.3c0-12.46.42-38.64-41.86-38.64zm-15.54 64.82v-25.2c0-.7.56-1.26 1.26-1.26h37.24c4.9 0 8.82 3.92 8.82 8.82V58.9c0 4.9-3.92 8.82-8.82 8.82h-37.24c-.7 0-1.26-.56-1.26-1.26zM178.185 61.84c0-.7-.56-1.26-1.26-1.26h-7.28c-.7 0-1.26.56-1.26 1.26 0 3.5-2.8 5.88-6.3 5.88h-39.34c-.7 0-1.26-.56-1.26-1.26V58.9c0-.7.56-1.26 1.26-1.26h11.76c.7 0 1.26.56 1.26 1.26v1.26c0 .7.56 1.26 1.26 1.26h18.9c.7 0 1.26-.56 1.26-1.26v-12.6c0-.7-.56-1.26-1.26-1.26h-18.9c-.7 0-1.26.56-1.26 1.26v1.26c0 .7-.56 1.26-1.26 1.26h-11.76c-.7 0-1.26-.56-1.26-1.26v-7.56c0-.7.56-1.26 1.26-1.26h39.34c3.5 0 6.3 2.38 6.3 5.88 0 .7.56 1.26 1.26 1.26h7.28c.7 0 1.26-.56 1.26-1.26v-7.14c0-12.46 2.1-12.32 2.1-22.12 0-12.46-25.48-14.98-43.68-14.98s-43.68 2.52-43.68 14.98c0 9.8 2.1 9.66 2.1 22.12 0 .7.56 1.26 1.26 1.26h13.86c.7 0 1.26.56 1.26 1.26v25.2c0 .7-.56 1.26-1.26 1.26h-13.86c-.7 0-1.26.56-1.26 1.26 0 12.46-2.1 12.46-2.1 22.26 0 12.46 25.48 14.7 43.68 14.7s43.68-2.24 43.68-14.7c0-9.8-2.1-9.8-2.1-22.26v-7.14zM189.501 68.98c0 12.46-2.24 12.32-2.24 22.12 0 12.46 17.92 15.54 35.28 15.54 28 0 37.24-11.76 37.24-29.4v-7.28c0-34.02-50.96-11.06-50.96-26.18 0-2.1 1.68-3.78 3.78-3.78h25.06c3.5 0 6.3 2.38 6.3 5.88 0 .7.56 1.26 1.26 1.26h7.28c.7 0 1.26-.56 1.26-1.26v-6.86c0-12.46 2.24-12.32 2.24-22.12 0-12.46-15.54-15.54-32.9-15.54-23.38 0-33.18 11.34-33.18 28.84v6.02c0 34.02 50.96 12.6 50.96 27.72 0 2.1-1.68 3.78-3.78 3.78h-31.5c-3.5 0-6.3-2.38-6.3-5.88 0-.7-.56-1.26-1.26-1.26h-7.28c-.7 0-1.26.56-1.26 1.26v7.14zM309.417 67.72h-13.86c-.7 0-1.26-.56-1.26-1.26v-25.2c0-.7.56-1.26 1.26-1.26h13.86c.7 0 1.26-.56 1.26-1.26 0-12.46 2.1-12.18 2.1-21.98s-14.98-13.02-23.52-13.02-23.52 3.22-23.52 13.02c0 9.8 2.1 9.52 2.1 21.98 0 .7.56 1.26 1.26 1.26h13.86c.7 0 1.26.56 1.26 1.26v25.2c0 .7-.56 1.26-1.26 1.26h-13.86c-.7 0-1.26.56-1.26 1.26 0 12.46-2.1 12.18-2.1 21.98s14.98 13.02 23.52 13.02 23.52-3.22 23.52-13.02c0-9.8-2.1-9.52-2.1-21.98 0-.7-.56-1.26-1.26-1.26zM388.358 52.32c0-.7-.56-1.26-1.26-1.26h-23.94c-.7 0-1.26.56-1.26 1.26v5.04c0 .7.56 1.26 1.26 1.26h13.86c.7 0 1.26.56 1.26 1.26v2.24c0 3.5-2.8 5.88-6.3 5.88h-32.48c-6.16 0-11.2-5.04-11.2-11.2v-5.88c0-6.16 5.04-11.2 11.2-11.2h32.76c3.5 0 6.3 2.38 6.3 5.88 0 .7.56 1.26 1.26 1.26h7.28c.7 0 1.26-.56 1.26-1.26V40c0-12.46 2.1-11.9 2.1-21.7 0-12.46-22.68-17.36-36.12-17.36-13.44 0-35.28 3.92-35.28 33.74V69.4c0 35.28 22.26 37.66 35.7 37.66 13.44 0 35.7-3.5 35.7-15.96 0-9.8-2.1-9.24-2.1-21.7V52.32zM473.564 3.74c-8.54 0-23.52 3.22-23.52 13.02 0 9.8 2.1 9.52 2.1 21.98 0 .7.56 1.26 1.26 1.26h13.86c.7 0 1.26.56 1.26 1.26v25.2c0 .7-.56 1.26-1.26 1.26h-7.84c-1.12 0-1.68-.56-1.68-.56l-17.92-25.2s-.56-.84-.56-1.4c0-.28.14-.56.84-.56h.7c.7 0 1.26-.56 1.26-1.26 0-12.46 2.1-12.18 2.1-21.98s-14.98-13.02-23.52-13.02-23.52 3.22-23.52 13.02c0 9.8 2.1 9.52 2.1 21.98 0 .7.56 1.26 1.26 1.26h13.86c.7 0 1.26.56 1.26 1.26v25.2c0 .7-.56 1.26-1.26 1.26h-13.86c-.7 0-1.26.56-1.26 1.26 0 12.46-2.1 12.18-2.1 21.98s14.98 13.02 23.52 13.02 23.52-3.22 23.52-13.02c0-9.8-2.1-9.52-2.1-21.98 0-.7-.56-1.26-1.26-1.26h-13.86c-.7 0-1.26-.56-1.26-1.26V42.1c0-.56.28-.84.56-.84.7 0 1.4 1.12 1.4 1.12l41.86 58.52c.84 1.26 2.38 2.1 4.06 2.1 2.8 0 5.04-2.24 5.04-5.04v-56.7c0-.7.56-1.26 1.26-1.26h13.86c.7 0 1.26-.56 1.26-1.26 0-12.46 2.1-12.18 2.1-21.98s-14.98-13.02-23.52-13.02z"/></svg>
